X:1
T:Title
%%score { 1 | 2 }
L:1/8
M:4/4
K:Bb
V:1 treble nm="Grand Piano"
V:2 bass 
V:1
 z4 z2[Q:1/4=100] B,D | [DF]2 [EG]2 [DF]2 [B,D][DF] | [DB]2 [Fd][Ec] [DB]2 [DF][DF] | G3 G G2 G2 | %4
 [DF]6 B,D | [DF]2 [EG]2 [DF]2 [B,D][DF] | [DB]2 [Fd][Ec] [DB]2 [DB][FB] | c2 cc [=Ec]2 E2 | %8
 F6 F2 | e3 d c2 cc | [Fd]3 [Ec] [DB]2 [DB][FA] | [EG]2 [FA]2 [GB][GB] [Gc]2 | [^Fd]6 [Fd]2 | %13
 e3 c A2 c2 | [Dc]3 [DB] [DF]2 [DF]2 | GABc B2 A2 |[M:3/4] [DB]6 |] %17
V:2
 z4 z2 [B,,D,][B,,F,B,] | [B,,B,]2 [B,,B,]2 [B,,B,]2 [B,,F,][B,,F,] | %2
 [B,,F,]2 [B,,B,]2 [B,,B,]2 [B,,B,][B,,B,] | [E,B,E]3 [E,B,E] [E,B,E]2 [E,B,E]2 | %4
 [B,,B,]6 [B,,D,][B,,F,B,] | [B,,B,]2 [B,,B,]2 [B,,B,]2 [B,,F,][B,,F,] | %6
 [B,,F,]2 [B,,B,]2 [B,,B,]2 [B,,B,][D,B,] | [F,A,F]2 [F,A,F][F,A,F] [C,G,]2 [C,B,C]2 | %8
 [F,A,C]6 [F,A,C]2 | [F,CF]3 [F,B,F] [F,A,F]2 [F,A,F][F,A,F] | %10
 [B,,B,]3 [B,,B,] [B,,B,]2 [B,,B,][D,B,] | [E,B,]2 [E,B,]2 [E,B,]2 [E,B,]2 | [D,A,]6 [D,A,]2 | %13
 [F,A,F]3 [F,A,F] [F,CF]2 [F,A,E]2 | [B,,B,]3 [B,,B,] [B,,B,]2 [B,,B,]2 | %15
 [E,B,E]2 [E,G,E]2 [F,D]2 [F,E]2 |[M:3/4] [B,,F,]6 |] %17

